components/AnnouncementBar/logos/color-threatstack.svg

<svg xmlns="http://www.w3.org/2000/svg" width="331" height="94" fill="none" viewBox="0 0 331 94">
  <path fill="#EA1947" d="M53.2 18.2c-2.4 0-4.4 2-4.4 4.4 0 2.4 2 4.4 4.4 4.4 2.4 0 4.4-2 4.4-4.4 0-2.4-2-4.4-4.4-4.4ZM28.8 18c-2.6 0-4.6 2.1-4.6 4.6 0 2.6 2.1 4.6 4.6 4.6 2.6 0 4.6-2.1 4.6-4.6 0-2.5-2.1-4.6-4.6-4.6Zm0 12.4c-2.4 0-4.4 2-4.4 4.4 0 2.4 2 4.4 4.4 4.4 2.4 0 4.4-2 4.4-4.4 0-2.4-2-4.4-4.4-4.4Zm0 12.4c-2.3 0-4.2 1.9-4.2 4.2 0 2.3 1.9 4.2 4.2 4.2 2.3 0 4.2-1.9 4.2-4.2 0-2.3-1.9-4.2-4.2-4.2Zm0 24.9c-2.1 0-3.7 1.7-3.7 3.7 0 2.1 1.7 3.7 3.7 3.7 2.1 0 3.7-1.7 3.7-3.7 0-2.1-1.7-3.7-3.7-3.7ZM4.4 18.2c-2.4 0-4.4 2-4.4 4.4C0 25 2 27 4.4 27c2.4 0 4.4-2 4.4-4.4 0-2.4-1.9-4.4-4.4-4.4Zm24.4 37c-2.2 0-3.9 1.8-3.9 3.9 0 2.1 1.8 3.9 3.9 3.9 2.2 0 3.9-1.8 3.9-3.9 0-2.1-1.7-3.9-3.9-3.9Z"/>
  <path fill="#192B54" d="M53.2 31.1c-2.1 0-3.8 1.7-3.8 3.8 0 2.1 1.7 3.8 3.8 3.8 2.1 0 3.8-1.7 3.8-3.8-.1-2.1-1.8-3.8-3.8-3.8Zm0 12.7c-1.8 0-3.3 1.5-3.3 3.3 0 1.8 1.5 3.3 3.3 3.3 1.8 0 3.2-1.5 3.2-3.3 0-1.9-1.5-3.3-3.2-3.3Zm0 12.6c-1.5 0-2.8 1.2-2.8 2.8 0 1.5 1.2 2.8 2.8 2.8 1.5 0 2.8-1.2 2.8-2.8-.1-1.5-1.3-2.8-2.8-2.8ZM41 24.6c-2.2 0-4 1.8-4 4s1.8 4 4 4 4-1.8 4-4c-.1-2.2-1.8-4-4-4ZM41 37c-2.1 0-3.8 1.7-3.8 3.8 0 2.1 1.7 3.8 3.8 3.8 2.1 0 3.8-1.7 3.8-3.8C44.7 38.7 43 37 41 37Zm0 12.7c-1.8 0-3.3 1.5-3.3 3.3 0 1.8 1.5 3.3 3.3 3.3 1.8 0 3.3-1.5 3.3-3.3-.1-1.9-1.5-3.3-3.3-3.3Zm0 12.6c-1.5 0-2.8 1.2-2.8 2.8 0 1.5 1.2 2.8 2.8 2.8 1.5 0 2.8-1.2 2.8-2.8 0-1.5-1.3-2.8-2.8-2.8ZM16.6 24.6c-2.2 0-4 1.8-4 4s1.8 4 4 4 4-1.8 4-4-1.8-4-4-4Zm0 12.4c-2.1 0-3.8 1.7-3.8 3.8 0 2.1 1.7 3.8 3.8 3.8 2.1 0 3.8-1.7 3.8-3.8 0-2.1-1.7-3.8-3.8-3.8Zm0 12.7c-1.8 0-3.3 1.5-3.3 3.3 0 1.8 1.5 3.3 3.3 3.3 1.8 0 3.2-1.5 3.2-3.3 0-1.9-1.4-3.3-3.2-3.3Zm0 12.6c-1.5 0-2.8 1.2-2.8 2.8 0 1.5 1.2 2.8 2.8 2.8 1.5 0 2.8-1.2 2.8-2.8 0-1.5-1.3-2.8-2.8-2.8ZM4.4 31.1c-2.1 0-3.8 1.7-3.8 3.8 0 2.1 1.7 3.8 3.8 3.8 2.1 0 3.8-1.7 3.8-3.8 0-2.1-1.7-3.8-3.8-3.8Zm0 12.7c-1.8 0-3.3 1.5-3.3 3.3 0 1.8 1.5 3.3 3.3 3.3 1.8 0 3.2-1.5 3.2-3.3.1-1.9-1.4-3.3-3.2-3.3Zm0 12.6c-1.5 0-2.8 1.2-2.8 2.8 0 1.5 1.2 2.8 2.8 2.8 1.5 0 2.8-1.2 2.8-2.8 0-1.5-1.2-2.8-2.8-2.8Z"/>
  <path fill="#EA1947" d="M75.7 32.4h-2.8v22.5c0 4.5 2.1 6.8 6.3 6.8h4.2V58h-3.1c-2 0-3-1.2-3-3.5V40.1h6.1v-3.6h-6.8l-.9-4.1Zm45.3 4.1h-3v25.2h4.4V43.3c1.9-2.1 4.3-3.2 7.3-3.2v-3.7c-3.1 0-5.8 1.1-8 3.2l-.7-3.1Zm16.4 10.1c.3-4.4 2.7-6.6 7.1-6.6 4.2 0 6.4 2.2 6.5 6.6h-13.6Zm7.2-10.1c-7.7 0-11.6 4.1-11.6 12.3 0 8.6 4.3 12.9 13 12.9 3.2 0 5.9-.3 8.1-1v-3.6c-2.2.6-4.8 1-7.6 1-6 0-9-2.6-9-7.7h17.7c.1-1.2.2-2.2.2-3.2-.1-7.2-3.7-10.7-10.8-10.7Zm32.3 19.1c-2.1 1.6-4.7 2.4-7.8 2.4-3 0-4.6-1.4-4.6-4.1 0-2.7 1.9-4.1 5.8-4.1 2.2 0 4.4.2 6.6.5v5.3Zm-6.8-19.1c-2.6 0-5.2.4-8 1.2v3.6c2.7-.8 5.4-1.2 8-1.2 4.5 0 6.8 1.4 6.8 4.3v2.4c-2.2-.3-4.4-.5-6.6-.5-6.8 0-10.2 2.6-10.2 7.8 0 5.1 3 7.6 9 7.6 3 0 5.7-.8 8.2-2.5l1.5 2.5h2.5V44.3c0-5.2-3.7-7.8-11.2-7.8Zm21.2-4.1h-2.8v22.5c0 4.5 2.1 6.8 6.3 6.8h4.2V58h-3c-2 0-3-1.2-3-3.5V40.1h6.1v-3.6h-6.8l-1-4.1Zm-89.9 4.1c-3.1 0-5.7.9-7.8 2.7l-1.7-6.8h-2.8v29.3h4.4V43.3c2.3-2.1 4.7-3.2 7.2-3.2 3.7 0 5.6 1.9 5.6 5.6v15.9h4.4V45.8c.1-6.2-3.1-9.3-9.3-9.3Z"/>
  <path fill="#192B54" d="M226.5 47h-3.6c-2.6 0-4-1.1-4-3.4 0-2.4 2.1-3.6 6.3-3.6 3 0 6 .5 8.9 1.4v-3.8c-3-.8-5.9-1.2-8.9-1.2-7 0-10.5 2.4-10.5 7.2 0 5 2.7 7.4 8.2 7.4h3.6c2.8 0 4.2 1.1 4.2 3.4 0 2.4-2 3.6-6 3.6-3 0-6-.5-9-1.4v3.8c3 .8 6 1.2 9 1.2 7 0 10.5-2.4 10.5-7.2-.1-4.9-3-7.4-8.7-7.4Zm17.4-14.6h-2.8v22.5c0 4.5 2.1 6.8 6.3 6.8h4.2V58h-3.1c-2 0-3-1.2-3-3.5V40.1h6.1v-3.6h-6.8l-.9-4.1Zm29 23.2c-2.1 1.6-4.7 2.5-7.8 2.5-3 0-4.6-1.4-4.6-4.1 0-2.7 1.9-4.1 5.8-4.1 2.2 0 4.4.2 6.6.5v5.2Zm-6.8-19.1c-2.6 0-5.2.4-8 1.2v3.6c2.7-.8 5.4-1.2 8-1.2 4.5 0 6.8 1.4 6.8 4.3v2.4c-2.2-.3-4.4-.5-6.6-.5-6.8 0-10.2 2.6-10.2 7.8 0 5.1 3 7.6 9 7.6 3 0 5.7-.8 8.2-2.5l1.5 2.5h2.5V44.3c0-5.2-3.7-7.8-11.2-7.8Zm17.2 12.1c0 8.7 4.5 13.1 13.4 13.1 2.4 0 4.6-.2 6.7-.7v-3.6c-2.1.5-4.4.7-7 .7-5.8 0-8.8-3.2-8.8-9.5 0-5.7 2.9-8.5 8.8-8.5 2.6 0 4.9.2 7 .7v-3.6c-2.1-.5-4.3-.7-6.7-.7-8.9 0-13.4 4-13.4 12.1Zm25.8-16.2h4.4v29.3h-4.4V32.4Zm21.5 4.1H325l-9.5 12.6h.1l9.4 12.5h5.6L321 49.1l9.6-12.6Z"/>
</svg>

<svg width="331" height="94" viewBox="0 0 331 94" fill="none" xmlns="http://www.w3.org/2000/svg">
<path d="M53.2 18.2C50.8 18.2 48.8 20.2 48.8 22.6C48.8 25 50.8 27 53.2 27C55.6 27 57.6 25 57.6 22.6C57.6 20.2 55.6 18.2 53.2 18.2ZM28.8 18C26.2 18 24.2 20.1 24.2 22.6C24.2 25.2 26.3 27.2 28.8 27.2C31.4 27.2 33.4 25.1 33.4 22.6C33.4 20.1 31.3 18 28.8 18ZM28.8 30.4C26.4 30.4 24.4 32.4 24.4 34.8C24.4 37.2 26.4 39.2 28.8 39.2C31.2 39.2 33.2 37.2 33.2 34.8C33.2 32.4 31.2 30.4 28.8 30.4ZM28.8 42.8C26.5 42.8 24.6 44.7 24.6 47C24.6 49.3 26.5 51.2 28.8 51.2C31.1 51.2 33 49.3 33 47C33 44.7 31.1 42.8 28.8 42.8ZM28.8 67.7C26.7 67.7 25.1 69.4 25.1 71.4C25.1 73.5 26.8 75.1 28.8 75.1C30.9 75.1 32.5 73.4 32.5 71.4C32.5 69.3 30.8 67.7 28.8 67.7ZM4.4 18.2C2 18.2 0 20.2 0 22.6C0 25 2 27 4.4 27C6.8 27 8.8 25 8.8 22.6C8.8 20.2 6.9 18.2 4.4 18.2ZM28.8 55.2C26.6 55.2 24.9 57 24.9 59.1C24.9 61.2 26.7 63 28.8 63C31 63 32.7 61.2 32.7 59.1C32.7 57 31 55.2 28.8 55.2Z" fill="#EA1947"/>
<path d="M53.2 31.1C51.1 31.1 49.4 32.8 49.4 34.9C49.4 37 51.1 38.7 53.2 38.7C55.3 38.7 57 37 57 34.9C56.9 32.8 55.2 31.1 53.2 31.1ZM53.2 43.8C51.4 43.8 49.9 45.3 49.9 47.1C49.9 48.9 51.4 50.4 53.2 50.4C55 50.4 56.4 48.9 56.4 47.1C56.4 45.2 54.9 43.8 53.2 43.8ZM53.2 56.4C51.7 56.4 50.4 57.6 50.4 59.2C50.4 60.7 51.6 62 53.2 62C54.7 62 56 60.8 56 59.2C55.9 57.7 54.7 56.4 53.2 56.4ZM41 24.6C38.8 24.6 37 26.4 37 28.6C37 30.8 38.8 32.6 41 32.6C43.2 32.6 45 30.8 45 28.6C44.9 26.4 43.2 24.6 41 24.6ZM41 37C38.9 37 37.2 38.7 37.2 40.8C37.2 42.9 38.9 44.6 41 44.6C43.1 44.6 44.8 42.9 44.8 40.8C44.7 38.7 43 37 41 37ZM41 49.7C39.2 49.7 37.7 51.2 37.7 53C37.7 54.8 39.2 56.3 41 56.3C42.8 56.3 44.3 54.8 44.3 53C44.2 51.1 42.8 49.7 41 49.7ZM41 62.3C39.5 62.3 38.2 63.5 38.2 65.1C38.2 66.6 39.4 67.9 41 67.9C42.5 67.9 43.8 66.7 43.8 65.1C43.8 63.6 42.5 62.3 41 62.3ZM16.6 24.6C14.4 24.6 12.6 26.4 12.6 28.6C12.6 30.8 14.4 32.6 16.6 32.6C18.8 32.6 20.6 30.8 20.6 28.6C20.6 26.4 18.8 24.6 16.6 24.6ZM16.6 37C14.5 37 12.8 38.7 12.8 40.8C12.8 42.9 14.5 44.6 16.6 44.6C18.7 44.6 20.4 42.9 20.4 40.8C20.4 38.7 18.7 37 16.6 37ZM16.6 49.7C14.8 49.7 13.3 51.2 13.3 53C13.3 54.8 14.8 56.3 16.6 56.3C18.4 56.3 19.8 54.8 19.8 53C19.8 51.1 18.4 49.7 16.6 49.7ZM16.6 62.3C15.1 62.3 13.8 63.5 13.8 65.1C13.8 66.6 15 67.9 16.6 67.9C18.1 67.9 19.4 66.7 19.4 65.1C19.4 63.6 18.1 62.3 16.6 62.3ZM4.4 31.1C2.3 31.1 0.599998 32.8 0.599998 34.9C0.599998 37 2.3 38.7 4.4 38.7C6.5 38.7 8.2 37 8.2 34.9C8.2 32.8 6.5 31.1 4.4 31.1ZM4.4 43.8C2.6 43.8 1.1 45.3 1.1 47.1C1.1 48.9 2.6 50.4 4.4 50.4C6.2 50.4 7.6 48.9 7.6 47.1C7.7 45.2 6.2 43.8 4.4 43.8ZM4.4 56.4C2.9 56.4 1.6 57.6 1.6 59.2C1.6 60.7 2.8 62 4.4 62C5.9 62 7.2 60.8 7.2 59.2C7.2 57.7 6 56.4 4.4 56.4Z" fill="#192B54"/>
<path d="M75.7 32.4H72.9V54.9C72.9 59.4 75 61.7 79.2 61.7H83.4V58H80.3C78.3 58 77.3 56.8 77.3 54.5V40.1H83.4V36.5H76.6L75.7 32.4ZM121 36.5H118V61.7H122.4V43.3C124.3 41.2 126.7 40.1 129.7 40.1V36.4C126.6 36.4 123.9 37.5 121.7 39.6L121 36.5ZM137.4 46.6C137.7 42.2 140.1 40 144.5 40C148.7 40 150.9 42.2 151 46.6H137.4ZM144.6 36.5C136.9 36.5 133 40.6 133 48.8C133 57.4 137.3 61.7 146 61.7C149.2 61.7 151.9 61.4 154.1 60.7V57.1C151.9 57.7 149.3 58.1 146.5 58.1C140.5 58.1 137.5 55.5 137.5 50.4H155.2C155.3 49.2 155.4 48.2 155.4 47.2C155.3 40 151.7 36.5 144.6 36.5ZM176.9 55.6C174.8 57.2 172.2 58 169.1 58C166.1 58 164.5 56.6 164.5 53.9C164.5 51.2 166.4 49.8 170.3 49.8C172.5 49.8 174.7 50 176.9 50.3V55.6ZM170.1 36.5C167.5 36.5 164.9 36.9 162.1 37.7V41.3C164.8 40.5 167.5 40.1 170.1 40.1C174.6 40.1 176.9 41.5 176.9 44.4V46.8C174.7 46.5 172.5 46.3 170.3 46.3C163.5 46.3 160.1 48.9 160.1 54.1C160.1 59.2 163.1 61.7 169.1 61.7C172.1 61.7 174.8 60.9 177.3 59.2L178.8 61.7H181.3V44.3C181.3 39.1 177.6 36.5 170.1 36.5ZM191.3 32.4H188.5V54.9C188.5 59.4 190.6 61.7 194.8 61.7H199V58H196C194 58 193 56.8 193 54.5V40.1H199.1V36.5H192.3L191.3 32.4ZM101.4 36.5C98.3 36.5 95.7 37.4 93.6 39.2L91.9 32.4H89.1V61.7H93.5V43.3C95.8 41.2 98.2 40.1 100.7 40.1C104.4 40.1 106.3 42 106.3 45.7V61.6H110.7V45.8C110.8 39.6 107.6 36.5 101.4 36.5Z" fill="#EA1947"/>
<path d="M226.5 47H222.9C220.3 47 218.9 45.9 218.9 43.6C218.9 41.2 221 40 225.2 40C228.2 40 231.2 40.5 234.1 41.4V37.6C231.1 36.8 228.2 36.4 225.2 36.4C218.2 36.4 214.7 38.8 214.7 43.6C214.7 48.6 217.4 51 222.9 51H226.5C229.3 51 230.7 52.1 230.7 54.4C230.7 56.8 228.7 58 224.7 58C221.7 58 218.7 57.5 215.7 56.6V60.4C218.7 61.2 221.7 61.6 224.7 61.6C231.7 61.6 235.2 59.2 235.2 54.4C235.1 49.5 232.2 47 226.5 47ZM243.9 32.4H241.1V54.9C241.1 59.4 243.2 61.7 247.4 61.7H251.6V58H248.5C246.5 58 245.5 56.8 245.5 54.5V40.1H251.6V36.5H244.8L243.9 32.4ZM272.9 55.6C270.8 57.2 268.2 58.1 265.1 58.1C262.1 58.1 260.5 56.7 260.5 54C260.5 51.3 262.4 49.9 266.3 49.9C268.5 49.9 270.7 50.1 272.9 50.4V55.6ZM266.1 36.5C263.5 36.5 260.9 36.9 258.1 37.7V41.3C260.8 40.5 263.5 40.1 266.1 40.1C270.6 40.1 272.9 41.5 272.9 44.4V46.8C270.7 46.5 268.5 46.3 266.3 46.3C259.5 46.3 256.1 48.9 256.1 54.1C256.1 59.2 259.1 61.7 265.1 61.7C268.1 61.7 270.8 60.9 273.3 59.2L274.8 61.7H277.3V44.3C277.3 39.1 273.6 36.5 266.1 36.5ZM283.3 48.6C283.3 57.3 287.8 61.7 296.7 61.7C299.1 61.7 301.3 61.5 303.4 61V57.4C301.3 57.9 299 58.1 296.4 58.1C290.6 58.1 287.6 54.9 287.6 48.6C287.6 42.9 290.5 40.1 296.4 40.1C299 40.1 301.3 40.3 303.4 40.8V37.2C301.3 36.7 299.1 36.5 296.7 36.5C287.8 36.5 283.3 40.5 283.3 48.6ZM309.1 32.4H313.5V61.7H309.1V32.4ZM330.6 36.5H325L315.5 49.1H315.6L325 61.6H330.6L321 49.1L330.6 36.5Z" fill="#192B54"/>
</svg>
